symbols/web/edit_attributes/materialsymbolsrounded/edit_attributes_wght300gradN25fill1_24px.svg

<svg xmlns="http://www.w3.org/2000/svg" height="24" width="24"><path d="M7.05 16.35q-1.8 0-3.075-1.262Q2.7 13.825 2.7 12q0-1.8 1.275-3.075Q5.25 7.65 7.05 7.65h9.9q1.8 0 3.075 1.262Q21.3 10.175 21.3 12q0 1.8-1.275 3.075-1.275 1.275-3.075 1.275Zm1.05-2.7q.15 0 .3-.05t.275-.175l2.25-2.25q.175-.175.175-.4 0-.225-.175-.4-.175-.175-.4-.175-.225 0-.4.175l-2.05 2.05-.55-.575q-.175-.175-.4-.175-.225 0-.4.175-.175.175-.175.4 0 .225.175.4l.775.775q.125.125.275.175.15.05.325.05Z"/></svg>

<svg xmlns="http://www.w3.org/2000/svg" height="24" width="24"><path d="M7.05 16.35Q5.25 16.35 3.975 15.088Q2.7 13.825 2.7 12Q2.7 10.2 3.975 8.925Q5.25 7.65 7.05 7.65H16.95Q18.75 7.65 20.025 8.912Q21.3 10.175 21.3 12Q21.3 13.8 20.025 15.075Q18.75 16.35 16.95 16.35ZM8.1 13.65Q8.25 13.65 8.4 13.6Q8.55 13.55 8.675 13.425L10.925 11.175Q11.1 11 11.1 10.775Q11.1 10.55 10.925 10.375Q10.75 10.2 10.525 10.2Q10.3 10.2 10.125 10.375L8.075 12.425L7.525 11.85Q7.35 11.675 7.125 11.675Q6.9 11.675 6.725 11.85Q6.55 12.025 6.55 12.25Q6.55 12.475 6.725 12.65L7.5 13.425Q7.625 13.55 7.775 13.6Q7.925 13.65 8.1 13.65Z"/></svg>
